!!!!SEGMENT: pl-sa--189-a-v-19--005_luna-georgius--missa-in-d-benedictus.krn
!!!cenid: 17xx:536
!!!COM: Luna, Georgius
!!!COM-rism: pe41010079
!!!CDT:
!!!CNT:
!!!OTL: Missa in D – Benedictus
!!!PDT:
!!!AGN: Sacred; Mass
!!!SMS-siglum: PL-SA
!!!SMS-shelfmark: 189/A V 19
!!!NIFC-rismID: 1001035910
!!!URL-scan: http://bc.bdsandomierz.pl/dlibra/publication/1526/edition/1494/content
!!!ONB-nifc: UWAGA: części Mszy: Kyrie, Gloria, Credo, Sanctus, Benedictus, Agnus Dei
!!!SMS-variant:
!!!SMS-altvar:
**kern	**dynam	**kern	**dynam	**kern	**dynam	**kern	**kern	**kern	**text	**kern	**kern	**kern
*part9	*part9	*part8	*part8	*part7	*part7	*part6	*part5	*part4	*part4	*part3	*part2	*part1
*	*	*group3	*	*group3	*	*group2	*group2	*group2	*	*group1	*group1	*
*staff9	*	*staff8	*	*staff7	*	*staff6	*staff5	*staff4	*staff4	*staff3	*staff2	*staff1
*I"Fondamento	*	*I"Violino 2do	*	*I"Violino Primo	*	*I"Basso	*I"Tenore	*I"Canto	*	*I"Tromba Secunda	*I"Tromba Dryma	*I"Flauto Traver.
*I'B	*	*I'Vl 2	*	*I'Vl 1	*	*I'B	*I'T	*I'C	*	*I'Tr 2	*I'Tr 1	*I'Fl
*clefF4	*	*clefG2	*	*clefG2	*	*clefF4	*clefC4	*clefC1	*	*clefG2	*clefG2	*clefG2
*	*	*	*	*	*	*	*	*	*	*ITrd-1c-2	*ITrd-1c-2	*
*k[f#c#]	*	*k[f#c#g#]	*	*k[f#c#g#]	*	*k[f#c#g#]	*k[f#c#g#]	*k[f#c#g#]	*	*k[f#c#g#]	*k[f#c#g#]	*k[f#c#g#]
*	*	*A:	*	*A:	*	*A:	*A:	*A:	*	*A:	*A:	*A:
*M3/4	*	*M3/4	*	*M3/4	*	*M3/4	*M3/4	*M3/4	*	*M3/4	*M3/4	*M3/4
=1	=1	=1	=1	=1	=1	=1	=1	=1	=1	=1	=1	=1
*	*	*	*	*2\right	*	*	*	*	*	*	*	*
!LO:TX:a:i:t=adagio Solo	!	!LO:TX:b:i:t=Benedictus	!	!LO:TX:b:t=Benedictus	!	!	!	!LO:TX:a:t=15:problem:jest 17 taktów pauzy	!	!	!	!
!LO:TX:a:t=P:problem:przy kluczu brak krzyżyka G#, F# i C# jeden pod drugim	!	!LO:TX:a:i:t=adagio	!	!LO:TX:a:t=adagio	!	!LO:TX:a:t=Benedictus Tacet || Osanna ut Supra	!LO:TX:a:t=Benedictus Tacet || Osanna ut Supra	!LO:TX:a:t=adagio	!	!LO:TX:a:t=Tacet:problem:niepodpisane nazwy części, brak informacji o Tacet	!LO:TX:a:t=Benedictus Tacet Osanna ut Supra	!LO:TX:a:t=Tacet:brak informacji o Tacet
!	!	!LO:TX:a:t=P:problem:krzyżyki ff# i cc# jeden pod drugim	!	!	!	!	!	!LO:TX:a:t=P:problem:przy kluczu znaki cc# g# f#, w następ;nych linijkach f# g# cc#	!	!	!	!LO:TX:a:t=w źródle znajdują się partie Clarino Primo i Corni Secundo z innej mszy
!	!	!	!	!	!	!	!	!LO:N:vis=00	!	!	!	!
4AA/	.	2c#/	.	2a\	.	2.ryy	2.ryy	0.r	.	2.ryy	2.ryy	2.ryy
4AA/	.	.	.	.	.	.	.	.	.	.	.	.
4AA/	.	(8a\L	.	(8cc#\L	.	.	.	.	.	.	.	.
.	.	8cc#\J)	.	8ee\J)	.	.	.	.	.	.	.	.
=2	=2	=2	=2	=2	=2	=2	=2	=2	=2	=2	=2	=2
4AA/	.	8.dd\L	.	8.ff#\L	.	2.ryy	2.ryy	.	.	2.ryy	2.ryy	2.ryy
!	!	!	!	!LO:N:vis=8	!	!	!	!	!	!	!	!
.	.	16b\Jk	.	16gg#\Jk	.	.	.	.	.	.	.	.
.	.	8qqb/	.	8qqgg#/	.	.	.	.	.	.	.	.
4AA/	.	4.cc#\	.	4.aa\	.	.	.	.	.	.	.	.
4AA/	.	.	.	.	.	.	.	.	.	.	.	.
.	.	8cc#\	.	8ee\	.	.	.	.	.	.	.	.
=3	=3	=3	=3	=3	=3	=3	=3	=3	=3	=3	=3	=3
4AA/	.	8.dd\L	.	8.ff#\L	.	2.ryy	2.ryy	.	.	2.ryy	2.ryy	2.ryy
.	.	16b\Jk	.	16gg#\Jk	.	.	.	.	.	.	.	.
.	.	8qqb/	.	8qqgg#/	.	.	.	.	.	.	.	.
4AA/	.	4.cc#\	.	4.aa\	.	.	.	.	.	.	.	.
4AA/	.	.	.	.	.	.	.	.	.	.	.	.
.	.	8dd\	.	8ff#\	.	.	.	.	.	.	.	.
=4	=4	=4	=4	=4	=4	=4	=4	=4	=4	=4	=4	=4
.	.	8qqcc#/	.	8qqee/	.	.	.	.	.	.	.	.
4E\	.	4b\	.	4dd\	.	2.ryy	2.ryy	.	.	2.ryy	2.ryy	2.ryy
4A\	.	4a\	.	4cc#\	.	.	.	.	.	.	.	.
!	!	!	!	!LO:TX:a:t=P:problem:kreska na pauzie, po tym takcie przekreślony takt	!	!	!	!	!	!	!	!
4AA/	.	4r	.	4r	.	.	.	.	.	.	.	.
=5	=5	=5	=5	=5	=5	=5	=5	=5	=5	=5	=5	=5
!	!	!	!	!	!	!	!	!LO:N:vis=00	!	!	!	!
4E\	.	(8e/L	.	(8e/L	.	2.ryy	2.ryy	0.r	.	2.ryy	2.ryy	2.ryy
.	.	8g#X/J)	.	8b/J)	.	.	.	.	.	.	.	.
4E\	.	(4.b/	.	4.dd\	.	.	.	.	.	.	.	.
4E\	.	.	.	.	.	.	.	.	.	.	.	.
.	.	8a/)	.	8cc#\	.	.	.	.	.	.	.	.
=6	=6	=6	=6	=6	=6	=6	=6	=6	=6	=6	=6	=6
4E\	.	8e/L	.	(8e/L	.	2.ryy	2.ryy	.	.	2.ryy	2.ryy	2.ryy
.	.	8a/J	.	8cc#/J)	.	.	.	.	.	.	.	.
4E\	.	4.cc#\	.	4.ee\	.	.	.	.	.	.	.	.
4E\	.	.	.	.	.	.	.	.	.	.	.	.
.	.	8b\	.	8dd\	.	.	.	.	.	.	.	.
!	!	!LO:LB:g=original	!	!	!	!	!	!	!	!	!	!
=7	=7	=7	=7	=7	=7	=7	=7	=7	=7	=7	=7	=7
4E\	.	8.dd\L	.	8.bb\L	.	2.ryy	2.ryy	.	.	2.ryy	2.ryy	2.ryy
.	.	16b\Jk	.	16dd\Jk	.	.	.	.	.	.	.	.
!LO:SIC:s=4G#:v	!	!	!	!	!	!	!	!	!	!	!	!
4G\	.	4b\	.	4dd\	.	.	.	.	.	.	.	.
!	!	!LO:TX:a:t=a	!	!	!	!	!	!	!	!	!	!
4A\	.	4a\	.	4cc#\	.	.	.	.	.	.	.	.
=8	=8	=8	=8	=8	=8	=8	=8	=8	=8	=8	=8	=8
!	!	!LO:TX:a:t=t.	!	!LO:TX:a:t=t.	!	!	!	!	!	!	!	!
4e\	.	4a\	.	4cc#\	.	2.ryy	2.ryy	.	.	2.ryy	2.ryy	2.ryy
4E\	.	4g#\	.	4b\	.	.	.	.	.	.	.	.
4E\	.	4r	.	4r	.	.	.	.	.	.	.	.
=9	=9	=9	=9	=9	=9	=9	=9	=9	=9	=9	=9	=9
*	*	*2\right	*	*	*	*	*	*	*	*	*	*
!	!	!	!	!	!	!	!	!LO:N:vis=00	!	!	!	!
4E\	.	2b\	.	2dd\	.	2.ryy	2.ryy	0.r	.	2.ryy	2.ryy	2.ryy
4E\	.	.	.	.	.	.	.	.	.	.	.	.
4E\	.	8.b\L	.	8.gg#\L	.	.	.	.	.	.	.	.
.	.	(32cc#\LL	.	(32aa\LL	.	.	.	.	.	.	.	.
.	.	32dd\JJJ)	.	32bb\JJJ)	.	.	.	.	.	.	.	.
=10	=10	=10	=10	=10	=10	=10	=10	=10	=10	=10	=10	=10
4E\	.	2b\	.	2dd\	.	2.ryy	2.ryy	.	.	2.ryy	2.ryy	2.ryy
4E\	.	.	.	.	.	.	.	.	.	.	.	.
4E\	.	8.b\L	.	8.gg#\L	.	.	.	.	.	.	.	.
.	.	(32cc#\LL	.	(32aa\LL	.	.	.	.	.	.	.	.
!LO:TX:a:t=P:problem:po tym takcie skreśony takt	!	!	!	!	!	!	!	!	!	!	!	!
.	.	32dd\JJJ)	.	32bb\JJJ)	.	.	.	.	.	.	.	.
=11	=11	=11	=11	=11	=11	=11	=11	=11	=11	=11	=11	=11
8AA/L	.	8e/L	.	(16cc#/LL	.	2.ryy	2.ryy	.	.	2.ryy	2.ryy	2.ryy
.	.	.	.	16a/)	.	.	.	.	.	.	.	.
8D/J	.	8f#/J	.	(16b/	.	.	.	.	.	.	.	.
.	.	.	.	16f#/JJ)	.	.	.	.	.	.	.	.
.	.	8qqc#/	.	8qqa/	.	.	.	.	.	.	.	.
!	!	!	!	!LO:TX:a:t=P:P:problem: tryl/ozdobnik??	!	!	!	!	!	!	!	!
4E\	.	2B/	.	2g#t/	.	.	.	.	.	.	.	.
4EE/	.	.	.	.	.	.	.	.	.	.	.	.
!	!	!	!	!LO:LB:g=original	!	!	!	!	!	!	!	!
=12	=12	=12	=12	=12	=12	=12	=12	=12	=12	=12	=12	=12
4E\	p	2b\	p	2dd\	.	2.ryy	2.ryy	.	.	2.ryy	2.ryy	2.ryy
4E\	.	.	.	.	.	.	.	.	.	.	.	.
4E\	.	8.b\L	.	8.gg#\L	.	.	.	.	.	.	.	.
.	.	(32cc#\LL	.	32aa\LL	.	.	.	.	.	.	.	.
.	.	32dd\JJJ)	.	32bb\JJJ	.	.	.	.	.	.	.	.
=13	=13	=13	=13	=13	=13	=13	=13	=13	=13	=13	=13	=13
!	!	!	!	!	!	!	!	!LO:TX:a:t=P:problem:to powinna być pauza 0r	!	!	!	!
!	!	!	!	!	!	!	!	!LO:N:vis=00	!	!	!	!
4E\	.	2b\	.	2dd\	.	2.ryy	2.ryy	0.r	.	2.ryy	2.ryy	2.ryy
4E\	.	.	.	.	.	.	.	.	.	.	.	.
4E\	.	8.b\L	.	8.gg#\L	.	.	.	.	.	.	.	.
.	.	(32cc#\LL	.	(32aa\LL	.	.	.	.	.	.	.	.
.	.	32dd\JJJ)	.	32bb\JJJ)	.	.	.	.	.	.	.	.
=14	=14	=14	=14	=14	=14	=14	=14	=14	=14	=14	=14	=14
8AA/L	.	8e/L	.	16cc#/LL	.	2.ryy	2.ryy	.	.	2.ryy	2.ryy	2.ryy
.	.	.	.	16a/	.	.	.	.	.	.	.	.
8D/J	.	8f#/J	.	16b/	.	.	.	.	.	.	.	.
.	.	.	.	16f#/JJ	.	.	.	.	.	.	.	.
.	.	8qqc#/	.	8qqa/	.	.	.	.	.	.	.	.
!	!	!	!	!LO:TX:a:t=t.	!	!	!	!	!	!	!	!
4E\	.	2B/	.	2g#/	.	.	.	.	.	.	.	.
4EE/	.	.	.	.	.	.	.	.	.	.	.	.
=15	=15	=15	=15	=15	=15	=15	=15	=15	=15	=15	=15	=15
!LO:TX:a:t=P:problem:dwa nadmiarowe takty pauzy w Canto	!	!LO:TX:a:t=P:problem:dwa nadmiarowe takty pauzy w Canto	!	!LO:TX:a:t=P:problem:dwa nadmiarowe takty pauzy w Canto	!	!LO:TX:a:t=P:problem:dwa nadmiarowe takty pauzy w Canto	!LO:TX:a:t=P:problem:dwa nadmiarowe takty pauzy w Canto	!	!	!LO:TX:a:t=P:problem:dwa nadmiarowe takty pauzy w Canto	!LO:TX:a:t=P:problem:dwa nadmiarowe takty pauzy w Canto	!LO:TX:a:t=P:problem:dwa nadmiarowe takty pauzy w Canto
2.ryy	.	2.ryy	.	2.ryy	.	2.ryy	2.ryy	.	.	2.ryy	2.ryy	2.ryy
=16	=16	=16	=16	=16	=16	=16	=16	=16	=16	=16	=16	=16
2.ryy	.	2.ryy	.	2.ryy	.	2.ryy	2.ryy	.	.	2.ryy	2.ryy	2.ryy
=17	=17	=17	=17	=17	=17	=17	=17	=17	=17	=17	=17	=17
!LO:TX:t=P:problem:mixed beam	!	!	!	!	!	!	!	!	!	!	!	!
8A\L	f	8c#/L	.	8a/L	.	2.ryy	2.ryy	2.r	.	2.ryy	2.ryy	2.ryy
16AA/L	.	(16A/L	.	(16A/L	.	.	.	.	.	.	.	.
16C#/JJ	.	16c#/JJ)	.	16c#/JJ)	.	.	.	.	.	.	.	.
!LO:LB:g=original	!	!	!	!	!	!	!	!	!	!	!	!
16E/LL	.	16e/LL	.	16e/LL	.	.	.	.	.	.	.	.
16D/	.	(16d/	.	16d/	.	.	.	.	.	.	.	.
16C#/	.	16c#/	.	16B/	.	.	.	.	.	.	.	.
16BB/JJ	.	16B/JJ)	.	16A/JJ	.	.	.	.	.	.	.	.
4AA/	.	4A/	.	4A;;/	.	.	.	.	.	.	.	.
!	!	!LO:LB:g=original	!	!	!	!	!	!	!	!	!	!
=18	=18	=18	=18	=18	=18	=18	=18	=18	=18	=18	=18	=18
*	*	*	*	*	*	*	*	*2\right	*	*	*	*
4AA/	p	2c#/	.	2a\	p	2.ryy	2.ryy	2a\	Be-	2.ryy	2.ryy	2.ryy
4AA/	.	.	.	.	.	.	.	.	.	.	.	.
4AA/	.	(8a\L	.	(8cc#\L	.	.	.	8cc#\L	-ne-	.	.	.
.	.	8cc#\J)	p	8ee\J)	.	.	.	8ee\J	.	.	.	.
=19	=19	=19	=19	=19	=19	=19	=19	=19	=19	=19	=19	=19
4AA/	.	8.dd\L	.	8.ff#\L	.	2.ryy	2.ryy	(8ff#\L	-dic-	2.ryy	2.ryy	2.ryy
.	.	.	.	.	.	.	.	8gg#\J)	.	.	.	.
.	.	16b\Jk	.	16gg#\Jk	.	.	.	.	.	.	.	.
.	.	8qqb/	.	8qqgg#/	.	.	.	8qqgg#/	.	.	.	.
!	!	!	!	!LO:N:vis=4	!	!	!	!	!	!	!	!
4AA/	.	4.cc#\	.	4.aa\	.	.	.	4.aa\	-tus	.	.	.
4AA/	.	.	.	.	.	.	.	.	.	.	.	.
.	.	8cc#\	.	8ee\	.	.	.	8ee\	qui	.	.	.
=20	=20	=20	=20	=20	=20	=20	=20	=20	=20	=20	=20	=20
4AA/	.	8.dd\L	.	8.ff#\L	.	2.ryy	2.ryy	8ff#\L	ve-	2.ryy	2.ryy	2.ryy
.	.	.	.	.	.	.	.	8gg#\J	.	.	.	.
.	.	16b\Jk	.	16gg#\Jk	.	.	.	.	.	.	.	.
.	.	8qqb/	.	8qqgg#/	.	.	.	8qqgg#/	.	.	.	.
!	!	!	!	!LO:N:vis=4	!	!	!	!	!	!	!	!
4AA/	.	4.cc#\	.	4.aa\	.	.	.	4.aa\	.	.	.	.
4AA/	.	.	.	.	.	.	.	.	.	.	.	.
.	.	8dd\	.	8ff#\	.	.	.	8ff#\	.	.	.	.
=21	=21	=21	=21	=21	=21	=21	=21	=21	=21	=21	=21	=21
.	.	8qqcc#/	.	8qqee/	.	.	.	8qqee/	.	.	.	.
4E\	.	4b\	.	4dd\	.	2.ryy	2.ryy	4dd\	.	2.ryy	2.ryy	2.ryy
4A\	.	4a\	.	4cc#\	.	.	.	4cc#\	-nit	.	.	.
4AA/	.	4r	.	4r	.	.	.	4r	.	.	.	.
=22	=22	=22	=22	=22	=22	=22	=22	=22	=22	=22	=22	=22
4E\	.	(8e/L	.	(8e/L	.	2.ryy	2.ryy	(8g#\L	Qui	2.ryy	2.ryy	2.ryy
.	.	8g#/J)	.	8b/J)	.	.	.	8b\J)	.	.	.	.
4E\	.	4.b/	.	4.dd\	.	.	.	4.dd\	ve-	.	.	.
4E\	.	.	.	.	.	.	.	.	.	.	.	.
.	.	8a/	.	8cc#\	.	.	.	8cc#\	-nit	.	.	.
=23	=23	=23	=23	=23	=23	=23	=23	=23	=23	=23	=23	=23
4E\	.	(8e/L	.	(8e/L	.	2.ryy	2.ryy	(8a\L	qui	2.ryy	2.ryy	2.ryy
.	.	8a/J)	.	8cc#/J)	.	.	.	8cc#\J)	.	.	.	.
4E\	.	4.cc#\	.	4.ee\	.	.	.	4.ee\	ve-	.	.	.
4E\	.	.	.	.	.	.	.	.	.	.	.	.
.	.	8b\	.	8dd\	.	.	.	8dd\	-nit	.	.	.
=24	=24	=24	=24	=24	=24	=24	=24	=24	=24	=24	=24	=24
4E\	.	8.dd\L	.	8.bb\L	.	2.ryy	2.ryy	4dd\	in	2.ryy	2.ryy	2.ryy
.	.	16b\Jk	.	16dd\Jk	.	.	.	.	.	.	.	.
!LO:SIC:s=4G#:v	!	!	!	!	!	!	!	!	!	!	!	!
4G\	.	4b\	.	4dd\	.	.	.	4dd\	no-	.	.	.
4A\	.	4a\	.	4cc#\	.	.	.	8cc#\	-mi-	.	.	.
.	.	.	.	.	.	.	.	8cc#\	-ne	.	.	.
!	!	!	!	!	!	!	!	!LO:LB:g=original	!	!	!	!
=25	=25	=25	=25	=25	=25	=25	=25	=25	=25	=25	=25	=25
!	!	!LO:TX:a:t=t.	!	!LO:TX:a:t=P:problem: tryl/ozdobnik?	!	!	!	!	!	!	!	!
4e\	.	4a/	.	4cc#t\	.	2.ryy	2.ryy	8.cc#\	Do-	2.ryy	2.ryy	2.ryy
.	.	.	.	.	.	.	.	16cc#\	-mi-	.	.	.
4E\	.	4g#/	.	4b\	.	.	.	4b\	-ni	.	.	.
4E\	.	4r	.	4r	.	.	.	4r	.	.	.	.
!	!	!	!	!LO:LB:g=original	!	!	!	!	!	!	!	!
=26	=26	=26	=26	=26	=26	=26	=26	=26	=26	=26	=26	=26
8E\L	.	8g#/L	.	8b\L	.	2.ryy	2.ryy	4.b\	Be-	2.ryy	2.ryy	2.ryy
8E\	.	8g#/	.	8b\	.	.	.	.	.	.	.	.
8E\	.	8g#/	.	8b\	.	.	.	.	.	.	.	.
8E\	.	8g#/	.	(8ee\	.	.	.	(8ee\L	-ne-	.	.	.
8E\	.	(8b/	.	8dd#X\	.	.	.	8dd#X\	.	.	.	.
8E\J	.	8a/J)	.	8cc#\J)	.	.	.	8cc#\J)	.	.	.	.
=27	=27	=27	=27	=27	=27	=27	=27	=27	=27	=27	=27	=27
.	.	8qqg#/	.	8qqb/	.	.	.	8qqb/	.	.	.	.
4BB/	.	4f#/	.	4a/	.	2.ryy	2.ryy	4a\	-dic-	2.ryy	2.ryy	2.ryy
4E\	.	4e/	.	4g#/	.	.	.	8g#\	-tuſ	.	.	.
.	.	.	.	.	.	.	.	(16gg#\LL	qui	.	.	.
.	.	.	.	.	.	.	.	16ff#\JJ)	.	.	.	.
8r	.	8r	.	8r	.	.	.	(16ee\LL	ve-	.	.	.
.	.	.	.	.	.	.	.	16dd\	.	.	.	.
8E\	.	8g#/	.	8b/	.	.	.	16cc#\	.	.	.	.
.	.	.	.	.	.	.	.	16b\JJ)	.	.	.	.
!	!	!LO:LB:g=original	!	!	!	!	!	!	!	!	!	!
=28	=28	=28	=28	=28	=28	=28	=28	=28	=28	=28	=28	=28
.	.	8qqg#/	.	8qqb/	.	.	.	8qqb/	.	.	.	.
4BB/	.	4f#/	.	4a/	.	2.ryy	2.ryy	4a\	.	2.ryy	2.ryy	2.ryy
8E\L	.	8e/L	.	8g#/L	.	.	.	4g#\	-nit	.	.	.
8E\	.	8g#/	.	8b/	.	.	.	.	.	.	.	.
8E\	.	8g#/	.	8b/	.	.	.	4b\	qui	.	.	.
8E\J	.	8g#/J	.	8b/J	.	.	.	.	.	.	.	.
=29	=29	=29	=29	=29	=29	=29	=29	=29	=29	=29	=29	=29
8AA/L	.	4e/	.	4cc#\	.	2.ryy	2.ryy	16cc#\LL	ve-	2.ryy	2.ryy	2.ryy
.	.	.	.	.	.	.	.	16a\	.	.	.	.
8AA/	.	.	.	.	.	.	.	16cc#\	.	.	.	.
.	.	.	.	.	.	.	.	16ee\JJ	.	.	.	.
8AA/	.	8r	.	8r	.	.	.	4.aa\	.	.	.	.
8AA/	.	8e/L	.	8cc#\L	.	.	.	.	.	.	.	.
8AA/	.	8e/	.	8cc#\	.	.	.	.	.	.	.	.
8AA/J	.	8e/J	.	8cc#\J	.	.	.	8cc#\	.	.	.	.
=30	=30	=30	=30	=30	=30	=30	=30	=30	=30	=30	=30	=30
8E\L	.	4g#/	.	4b\	.	2.ryy	2.ryy	(16b\LL	.	2.ryy	2.ryy	2.ryy
.	.	.	.	.	.	.	.	16g#\	.	.	.	.
8E\	.	.	.	.	.	.	.	16b\	.	.	.	.
.	.	.	.	.	.	.	.	16ee\JJ)	.	.	.	.
!	!	!	!	!	!	!	!	!LO:TX:a:t=P:problem: legato/fermata	!	!	!	!
8E\	.	8r	.	8r	.	.	.	4.gg#\	.	.	.	.
8E\	.	8g#/L	.	8b\L	.	.	.	.	.	.	.	.
8E\	.	8g#/	.	8b\	.	.	.	.	.	.	.	.
8E\J	.	8g#/J	.	8b\J	.	.	.	(8b\	.	.	.	.
!LO:LB:g=original	!	!	!	!	!	!	!	!	!	!	!	!
=31	=31	=31	=31	=31	=31	=31	=31	=31	=31	=31	=31	=31
8BB/L	.	4f#/	.	4a/	.	2.ryy	2.ryy	16a\LL	.	2.ryy	2.ryy	2.ryy
.	.	.	.	.	.	.	.	16f#\	.	.	.	.
8BB/	.	.	.	.	.	.	.	16a\)	.	.	.	.
.	.	.	.	.	.	.	.	16dd#X\JJ	.	.	.	.
8BB/	.	8r	.	8r	.	.	.	4.ff#\	.	.	.	.
8BB/	.	8f#/L	.	8a/L	.	.	.	.	.	.	.	.
8BB/	.	8f#/	.	8a/	.	.	.	.	.	.	.	.
8BB/J	.	8f#/J	.	8a/J	.	.	.	8a\	.	.	.	.
!	!	!	!	!	!	!	!	!LO:LB:g=original	!	!	!	!
=32	=32	=32	=32	=32	=32	=32	=32	=32	=32	=32	=32	=32
.	.	.	.	.	.	.	.	8qqb/	.	.	.	.
4E\	.	4e/	.	4g#/	.	2.ryy	2.ryy	4g#\	.	2.ryy	2.ryy	2.ryy
4BB\	.	4d#X/	.	4f#/	.	.	.	4f#/	-nit	.	.	.
8B\L	.	4f#/	.	4dd#X\	.	.	.	4dd#X\	in	.	.	.
8A\J	.	.	.	.	.	.	.	.	.	.	.	.
=33	=33	=33	=33	=33	=33	=33	=33	=33	=33	=33	=33	=33
!LO:SIC:s=8G#:v	!	!	!	!	!	!	!	!	!	!	!	!
8G\L	.	8g#/L	.	8ee\L	.	2.ryy	2.ryy	8ee\	no-	2.ryy	2.ryy	2.ryy
8A\J	.	8cc#/J	.	8ff#\J	.	.	.	16ff#\	-mi-	.	.	.
.	.	.	.	.	.	.	.	16ff#\	-ne	.	.	.
.	.	8qqg#/	.	8qqee/	.	.	.	8qqee/	.	.	.	.
4B\	.	4.f#/	.	4.dd#X\	.	.	.	4.dd#X\	Do-	.	.	.
4BB/	.	.	.	.	.	.	.	.	.	.	.	.
.	.	8f#/	.	8dd#\	.	.	.	8dd#\	-mi-	.	.	.
=34	=34	=34	=34	=34	=34	=34	=34	=34	=34	=34	=34	=34
!	!	!	!	!	!	!	!	!LO:SIC:s=q8dd#:v	!	!	!	!
.	.	.	.	8qqdd/	.	.	.	8qqdd/	.	.	.	.
4E\	.	2g#/	.	2ee\	.	2.ryy	2.ryy	4ee\	-ni	2.ryy	2.ryy	2.ryy
8e\L	f	.	.	.	.	.	.	4r	.	.	.	.
8B\	.	.	.	.	.	.	.	.	.	.	.	.
!LO:SIC:s=8G#:v	!	!	!	!	!	!	!	!	!	!	!	!
8G\	.	4r	.	4r	.	.	.	4r	.	.	.	.
8E\J	.	.	.	.	.	.	.	.	.	.	.	.
=35	=35	=35	=35	=35	=35	=35	=35	=35	=35	=35	=35	=35
!	!	!	!	!	!	!	!	!LO:N:vis=00	!	!	!	!
4BB/	.	8B/L	f	(8B/L	.	2.ryy	2.ryy	0.r	.	2.ryy	2.ryy	2.ryy
.	.	8d#X/J	.	8f#/J)	.	.	.	.	.	.	.	.
4BB/	.	4.f#/	.	4.a/	.	.	.	.	.	.	.	.
4BB/	.	.	.	.	.	.	.	.	.	.	.	.
.	.	8e/	.	8g#/	.	.	.	.	.	.	.	.
!	!	!LO:PB:g=original	!	!	!	!	!	!	!	!	!	!
=36	=36	=36	=36	=36	=36	=36	=36	=36	=36	=36	=36	=36
4BB/	.	(8B/L	.	(8B/L	.	2.ryy	2.ryy	.	.	2.ryy	2.ryy	2.ryy
.	.	8e/J)	.	8g#/J)	.	.	.	.	.	.	.	.
4BB/	.	4.g#/	.	4.b/	.	.	.	.	.	.	.	.
4BB/	.	.	.	.	.	.	.	.	.	.	.	.
.	.	8f#/	.	8a/	.	.	.	.	.	.	.	.
=37	=37	=37	=37	=37	=37	=37	=37	=37	=37	=37	=37	=37
4BB/	.	8.a/L	.	8.ff#\L	.	2.ryy	2.ryy	.	.	2.ryy	2.ryy	2.ryy
.	.	16f#/Jk	.	16a\Jk	.	.	.	.	.	.	.	.
4D#X/	.	4f#/	.	4a/	.	.	.	.	.	.	.	.
4E/	.	4e/	.	4g#/	.	.	.	.	.	.	.	.
!	!	!	!	!LO:PB:g=original	!	!	!	!	!	!	!	!
=38	=38	=38	=38	=38	=38	=38	=38	=38	=38	=38	=38	=38
!	!	!	!	!LO:TX:a:t=t.	!	!	!	!	!	!	!	!
4B\	.	4e/	.	4g#/	.	2.ryy	2.ryy	.	.	2.ryy	2.ryy	2.ryy
4BB/	.	4d#X/	.	4f#/	.	.	.	.	.	.	.	.
4BB/	.	4r	.	4r	.	.	.	.	.	.	.	.
=39	=39	=39	=39	=39	=39	=39	=39	=39	=39	=39	=39	=39
!	!	!	!	!	!	!	!	!LO:N:vis=00	!	!	!	!
4BB/	.	2f#/	.	2a\	.	2.ryy	2.ryy	0.r	.	2.ryy	2.ryy	2.ryy
4BB/	.	.	.	.	.	.	.	.	.	.	.	.
4BB/	.	8.f#/L	.	8.dd#X\L	.	.	.	.	.	.	.	.
.	.	(32g#/LL	.	(32ee\LL	.	.	.	.	.	.	.	.
.	.	32a/JJJ)	.	32ff#\JJJ)	.	.	.	.	.	.	.	.
=40	=40	=40	=40	=40	=40	=40	=40	=40	=40	=40	=40	=40
4BB/	.	2f#/	.	2a\	.	2.ryy	2.ryy	.	.	2.ryy	2.ryy	2.ryy
4BB/	.	.	.	.	.	.	.	.	.	.	.	.
4BB/	.	8.f#/L	.	8.dd#X\L	.	.	.	.	.	.	.	.
.	.	(32g#/LL	.	(32ee\LL	.	.	.	.	.	.	.	.
.	.	32a/JJJ)	.	32ff#\JJJ)	.	.	.	.	.	.	.	.
=41	=41	=41	=41	=41	=41	=41	=41	=41	=41	=41	=41	=41
8E\L	.	8b\L	.	(16gg#\LL	.	2.ryy	2.ryy	.	.	2.ryy	2.ryy	2.ryy
.	.	.	.	16ee\)	.	.	.	.	.	.	.	.
8A\J	.	8cc#\J	.	(16ff#\	.	.	.	.	.	.	.	.
.	.	.	.	16cc#\JJ)	.	.	.	.	.	.	.	.
.	.	8qqg#/	.	8qqee/	.	.	.	.	.	.	.	.
4B\	.	2f#/	.	2dd#X\	.	.	.	.	.	.	.	.
!LO:TX:a:t=P:problem:po tym takcie 18 skreślonych taktów	!	!	!	!	!	!	!	!	!	!	!	!
4BB/	.	.	.	.	.	.	.	.	.	.	.	.
!LO:PB:g=original	!	!	!	!	!	!	!	!	!	!	!	!
=42	=42	=42	=42	=42	=42	=42	=42	=42	=42	=42	=42	=42
4BB/	p	2f#/	p	2a\	.	2.ryy	2.ryy	.	.	2.ryy	2.ryy	2.ryy
4BB/	.	.	.	.	.	.	.	.	.	.	.	.
4BB/	.	8.f#/L	.	8.dd#X\L	.	.	.	.	.	.	.	.
.	.	(32g#/LL	.	(32ee\LL	.	.	.	.	.	.	.	.
.	.	32a/JJJ)	.	32ff#\JJJ)	.	.	.	.	.	.	.	.
=43	=43	=43	=43	=43	=43	=43	=43	=43	=43	=43	=43	=43
!	!	!	!	!	!	!	!	!LO:N:vis=0	!	!	!	!
4BB/	.	2f#/	.	2a\	.	2.ryy	2.ryy	1.r	.	2.ryy	2.ryy	2.ryy
4BB/	.	.	.	.	.	.	.	.	.	.	.	.
4BB/	.	8.f#/L	.	8.dd#X\L	.	.	.	.	.	.	.	.
.	.	(32g#/LL	.	(32ee\LL	.	.	.	.	.	.	.	.
.	.	32a/JJJ)	.	32ff#\JJJ)	.	.	.	.	.	.	.	.
=44	=44	=44	=44	=44	=44	=44	=44	=44	=44	=44	=44	=44
8E\L	.	8b\L	.	(16gg#\LL	.	2.ryy	2.ryy	.	.	2.ryy	2.ryy	2.ryy
.	.	.	.	16ee\)	.	.	.	.	.	.	.	.
8A\J	.	8cc#\J	.	(16ff#\	.	.	.	.	.	.	.	.
.	.	.	.	16cc#\JJ)	.	.	.	.	.	.	.	.
.	.	8qqg#/	.	8qqee/	.	.	.	.	.	.	.	.
4B\	.	2f#/	.	2dd#X\	.	.	.	.	.	.	.	.
4BB/	.	.	.	.	.	.	.	.	.	.	.	.
!	!	!LO:LB:g=original	!	!	!	!	!	!	!	!	!	!
=45	=45	=45	=45	=45	=45	=45	=45	=45	=45	=45	=45	=45
!	!	!	!	!LO:TX:t=P:problem:mixed beam	!	!	!	!	!	!	!	!
8E\L	f	8g#/L	f	8ee\L	.	2.ryy	2.ryy	2.r	.	2.ryy	2.ryy	2.ryy
16E\L	.	(16e/L	.	(16e/L	.	.	.	.	.	.	.	.
!LO:SIC:s=16G#:v	!	!	!	!	!	!	!	!	!	!	!	!
16G\JJ	.	16g#/JJ)	.	16g#/JJ)	.	.	.	.	.	.	.	.
16B\LL	.	(16b/LL	.	16b/LL	.	.	.	.	.	.	.	.
16A\	.	16a/)	.	16a/	.	.	.	.	.	.	.	.
!LO:SIC:s=16G#:v	!	!	!	!	!	!	!	!	!	!	!	!
16G\	.	(16g#/	.	16g#/	.	.	.	.	.	.	.	.
16F#\JJ	.	16f#/JJ)	.	16f#/JJ	.	.	.	.	.	.	.	.
4E\	.	4e/	.	4e/	.	.	.	.	.	.	.	.
=46	=46	=46	=46	=46	=46	=46	=46	=46	=46	=46	=46	=46
4E\	.	4g#/	p	4b\	p	2.ryy	2.ryy	2b\	Be-	2.ryy	2.ryy	2.ryy
4E\	.	4g#/	.	4b\	.	.	.	.	.	.	.	.
4E\	.	4g#/	.	4b\	.	.	.	(8ee\L	-ne-	.	.	.
.	.	.	.	.	.	.	.	8b\J)	.	.	.	.
=47	=47	=47	=47	=47	=47	=47	=47	=47	=47	=47	=47	=47
4E\	.	8a/L	.	8cc#\L	.	2.ryy	2.ryy	8cc#\L	-dic-	2.ryy	2.ryy	2.ryy
.	.	8f#/J	.	8dd#X\J	.	.	.	8dd#X\J	.	.	.	.
.	.	8qqf#/	.	8qqdd#/	.	.	.	8qqdd#/	.	.	.	.
4E\	.	4.g#/	.	4.ee\	.	.	.	4.ee\	-tuſ	.	.	.
4E\	.	.	.	.	.	.	.	.	.	.	.	.
.	.	8g#/	.	8b\	.	.	.	8b\	qui	.	.	.
=48	=48	=48	=48	=48	=48	=48	=48	=48	=48	=48	=48	=48
4E\	.	8a/L	.	8cc#X\L	.	2.ryy	2.ryy	(8cc#\L	ve-	2.ryy	2.ryy	2.ryy
.	.	8f#/J	.	8dd#X\J	.	.	.	8dd#X\J)	.	.	.	.
.	.	8qqf#/	.	8qqdd#/	.	.	.	8qqdd#/	.	.	.	.
4E\	.	4.g#/	.	4.ee\	.	.	.	4.ee\	-nit	.	.	.
4E\	.	.	.	.	.	.	.	.	.	.	.	.
.	.	8a/	.	8cc#\	.	.	.	8cc#\	qui	.	.	.
!	!	!	!	!LO:LB:g=original	!	!	!	!	!	!	!	!
=49	=49	=49	=49	=49	=49	=49	=49	=49	=49	=49	=49	=49
.	.	8qqg#/	.	8qqb/	.	.	.	8qqb/	.	.	.	.
4BB/	.	4f#/	.	4a/	.	2.ryy	2.ryy	4a\	ve-	2.ryy	2.ryy	2.ryy
8E\L	.	4e/	.	4g#/	.	.	.	4g#\	-nit	.	.	.
8E\	.	.	.	.	.	.	.	.	.	.	.	.
!LO:SIC:s=8G#:v	!	!	!	!	!	!	!	!	!	!	!	!
8G\	.	4r	.	4r	.	.	.	4r	.	.	.	.
8E\J	.	.	.	.	.	.	.	.	.	.	.	.
!	!	!	!	!	!	!	!	!LO:LB:g=original	!	!	!	!
=50	=50	=50	=50	=50	=50	=50	=50	=50	=50	=50	=50	=50
8BB/L	.	8f#/L	.	8dd#X\L	.	2.ryy	2.ryy	4dd#X\	Be-	2.ryy	2.ryy	2.ryy
8BB/	.	8f#/	.	8dd#\	.	.	.	.	.	.	.	.
8BB/	.	8f#/	.	8dd#\	.	.	.	4.ff#\	.	.	.	.
8BB/	.	8f#/	.	8dd#\	.	.	.	.	.	.	.	.
8BB/	.	8f#/	.	8dd#\	.	.	.	.	.	.	.	.
8BB/J	.	8f#/J	.	8dd#\J	.	.	.	8b\	-ne-	.	.	.
=51	=51	=51	=51	=51	=51	=51	=51	=51	=51	=51	=51	=51
!	!	!	!	!LO:SIC:s=8dd#:v	!	!	!	!	!	!	!	!
.	.	.	.	.	.	.	.	8qqb/	.	.	.	.
8BB/L	.	8f#/L	.	8dd\L	.	2.ryy	2.ryy	(8a\L	-dic-	2.ryy	2.ryy	2.ryy
!	!	!	!	!LO:SIC:s=8dd#:v	!	!	!	!	!	!	!	!
8BB/	.	8f#/	.	8dd\	.	.	.	8g#\J)	.	.	.	.
!	!	!	!	!LO:SIC:s=8dd#:v	!	!	!	!	!	!	!	!
.	.	.	.	.	.	.	.	8qqg#/	.	.	.	.
8BB/	.	8f#/	.	8dd\	.	.	.	2a\	-tus	.	.	.
!	!	!	!	!LO:SIC:s=8dd#:v	!	!	!	!	!	!	!	!
8BB/	.	8f#/	.	8dd\	.	.	.	.	.	.	.	.
!	!	!	!	!LO:SIC:s=8dd#:v	!	!	!	!	!	!	!	!
8BB/	.	8f#/	.	8dd\	.	.	.	.	.	.	.	.
!	!	!	!	!LO:SIC:s=8dd#:v	!	!	!	!	!	!	!	!
8BB/J	.	8f#/J	.	8dd\J	.	.	.	.	.	.	.	.
=52	=52	=52	=52	=52	=52	=52	=52	=52	=52	=52	=52	=52
!LO:TX:a:t=P:problem:takty 52-53 zapisane repetycją	!	!	!	!LO:SIC:s=8dd#:v	!	!	!	!	!	!	!	!
8BB/Lyy	.	8f#/L	.	8dd\L	.	2.ryy	2.ryy	4dd#X\	qui	2.ryy	2.ryy	2.ryy
!	!	!	!	!LO:SIC:s=8dd#:v	!	!	!	!	!	!	!	!
8BB/yy	.	8f#/	.	8dd\	.	.	.	.	.	.	.	.
!	!	!	!	!LO:SIC:s=8dd#:v	!	!	!	!	!	!	!	!
8BB/yy	.	8f#/	.	8dd\	.	.	.	4.ff#\	ve-	.	.	.
!	!	!	!	!LO:SIC:s=8dd#:v	!	!	!	!	!	!	!	!
8BB/yy	.	8f#/	.	8dd\	.	.	.	.	.	.	.	.
!	!	!	!	!LO:SIC:s=8dd#:v	!	!	!	!	!	!	!	!
8BB/yy	.	8f#/	.	8dd\	.	.	.	.	.	.	.	.
!	!	!	!	!LO:SIC:s=8dd#:v	!	!	!	!	!	!	!	!
8BB/Jyy	.	8f#/J	.	8dd\J	.	.	.	8b\	.	.	.	.
=53	=53	=53	=53	=53	=53	=53	=53	=53	=53	=53	=53	=53
!	!	!	!	!LO:SIC:s=8dd#:v	!	!	!	!	!	!	!	!
.	.	.	.	.	.	.	.	8qqb/	.	.	.	.
8BB/Lyy	.	8f#/L	.	8dd\L	.	2.ryy	2.ryy	(8a\L	.	2.ryy	2.ryy	2.ryy
!	!	!	!	!LO:SIC:s=8dd#:v	!	!	!	!	!	!	!	!
8BB/yy	.	8f#/	.	8dd\	.	.	.	8g#\J)	.	.	.	.
!	!	!	!	!LO:SIC:s=8dd#:v	!	!	!	!	!	!	!	!
.	.	.	.	.	.	.	.	8qqg#/	.	.	.	.
8BB/yy	.	8f#/	.	8dd\	.	.	.	4.a\	-nit	.	.	.
!	!	!	!	!LO:SIC:s=8dd#:v	!	!	!	!	!	!	!	!
8BB/yy	.	8f#/	.	8dd\	.	.	.	.	.	.	.	.
!	!	!	!	!LO:SIC:s=8dd#:v	!	!	!	!	!	!	!	!
8BB/yy	.	8f#/	.	8dd\	.	.	.	.	.	.	.	.
8BB/Jyy	.	8a/J	.	8ff#\J	.	.	.	8aa\	in	.	.	.
!	!	!LO:LB:g=original	!	!	!	!	!	!	!	!	!	!
=54	=54	=54	=54	=54	=54	=54	=54	=54	=54	=54	=54	=54
8E\L	.	8b\L	.	(8gg#\L	.	2.ryy	2.ryy	(16gg#\LL	no-	2.ryy	2.ryy	2.ryy
.	.	.	.	.	.	.	.	16ee\JJ)	.	.	.	.
8A\J	.	8cc#\J	.	8ff#\J)	.	.	.	16ff#\	-mi-	.	.	.
.	.	.	.	.	.	.	.	16cc#\	-ne	.	.	.
.	.	8qqg#/	.	8qqee/	.	.	.	8qqee/	.	.	.	.
4B\	.	2f#/	.	2dd#X\	.	.	.	4.dd#X\	Do-	.	.	.
4BB/	.	.	.	.	.	.	.	.	.	.	.	.
.	.	.	.	.	.	.	.	8dd#\	-mi-	.	.	.
=55	=55	=55	=55	=55	=55	=55	=55	=55	=55	=55	=55	=55
!	!	!	!	!LO:SIC:s=q8dd#:v	!	!	!	!	!	!	!	!
.	.	8qqf#/	.	8qqdd/	.	.	.	8qqdd/	.	.	.	.
4E\	.	2g#/	.	2ee\	.	2.ryy	2.ryy	2ee\	-ni	2.ryy	2.ryy	2.ryy
8E\L	.	.	.	.	.	.	.	.	.	.	.	.
8Dn\	.	.	.	.	.	.	.	.	.	.	.	.
8C#\	.	4r	.	4r	.	.	.	4r	.	.	.	.
8BB\J	.	.	.	.	.	.	.	.	.	.	.	.
=56	=56	=56	=56	=56	=56	=56	=56	=56	=56	=56	=56	=56
4AA/	.	2c#/	.	2a\	.	2.ryy	2.ryy	2a\	Be-	2.ryy	2.ryy	2.ryy
4AA/	.	.	.	.	.	.	.	.	.	.	.	.
4AA/	.	(8a\L	.	(8cc#\L	.	.	.	8cc#\L	-ne-	.	.	.
.	.	8cc#\J)	.	8ee\J)	.	.	.	8ee\J	.	.	.	.
=57	=57	=57	=57	=57	=57	=57	=57	=57	=57	=57	=57	=57
4AA/	.	8.dd\L	.	8.ff#\L	.	2.ryy	2.ryy	8.ff#\L	-dic-	2.ryy	2.ryy	2.ryy
.	.	16b\Jk	.	16gg#\Jk	.	.	.	16gg#\Jk	.	.	.	.
.	.	8qqb/	.	8qqgg#/	.	.	.	8qqgg#/	.	.	.	.
4AA/	.	4.cc#\	.	4.aa\	.	.	.	4.aa\	-tus	.	.	.
4AA/	.	.	.	.	.	.	.	.	.	.	.	.
.	.	8cc#\	.	8ee\	.	.	.	8ee\	qui	.	.	.
!LO:LB:g=original	!	!	!	!	!	!	!	!LO:LB:g=original	!	!	!	!
=58	=58	=58	=58	=58	=58	=58	=58	=58	=58	=58	=58	=58
4AA/	.	8.dd\L	.	8ff#\L	.	2.ryy	2.ryy	8ff#\L	ve-	2.ryy	2.ryy	2.ryy
.	.	.	.	8gg#\J	.	.	.	8gg#\J	.	.	.	.
.	.	16b\Jk	.	.	.	.	.	.	.	.	.	.
.	.	8qqb/	.	.	.	.	.	.	.	.	.	.
4AA/	.	4.cc#\	.	4.aa\	.	.	.	4.aa\	-nit	.	.	.
4AA/	.	.	.	.	.	.	.	.	.	.	.	.
.	.	8dd\	.	8ff#\	.	.	.	8ff#\	qui	.	.	.
=59	=59	=59	=59	=59	=59	=59	=59	=59	=59	=59	=59	=59
.	.	8qqcc#/	.	8qqee/	.	.	.	8qqee/	.	.	.	.
4E\	.	4b\	.	4dd\	.	2.ryy	2.ryy	4dd\	ve-	2.ryy	2.ryy	2.ryy
4A\	.	4a\	.	4cc#\	.	.	.	4cc#\	-nit	.	.	.
4AA/	.	4r	.	4r	.	.	.	4r	.	.	.	.
=60	=60	=60	=60	=60	=60	=60	=60	=60	=60	=60	=60	=60
!	!	!	!	!LO:TX:b:t=P:problem: legato z kropką jak fermata	!	!	!	!	!	!	!	!
4E\	.	(8e/L	.	(8e/L	.	2.ryy	2.ryy	(8g#\L	qui	2.ryy	2.ryy	2.ryy
.	.	8g#/J)	.	8b/J)	.	.	.	8b\J)	.	.	.	.
4E\	.	4.b/	.	4.dd\	.	.	.	4.dd\	ve-	.	.	.
4E\	.	.	.	.	.	.	.	.	.	.	.	.
.	.	8a/	.	8cc#\	.	.	.	8cc#\	-nit	.	.	.
!	!	!	!	!LO:LB:g=original	!	!	!	!	!	!	!	!
=61	=61	=61	=61	=61	=61	=61	=61	=61	=61	=61	=61	=61
4E\	.	(8e/L	.	(8e/L	.	2.ryy	2.ryy	(8a\L	qui	2.ryy	2.ryy	2.ryy
.	.	8a/J)	.	8cc#/J)	.	.	.	8cc#\J)	.	.	.	.
4E\	.	4.cc#\	.	4.ee\	.	.	.	4.ee\	ve-	.	.	.
4E\	.	.	.	.	.	.	.	.	.	.	.	.
.	.	8b\	.	8dd\	.	.	.	8dd\	-nit	.	.	.
=62	=62	=62	=62	=62	=62	=62	=62	=62	=62	=62	=62	=62
4E\	.	8.dd\L	.	8.bb\L	.	2.ryy	2.ryy	4dd\	in	2.ryy	2.ryy	2.ryy
.	.	16b\Jk	.	16dd\Jk	.	.	.	.	.	.	.	.
!LO:SIC:s=4G#:v	!	!	!	!	!	!	!	!	!	!	!	!
4G\	.	4b\	.	4dd\	.	.	.	4dd\	no-	.	.	.
4A\	.	4a\	.	4cc#\	.	.	.	8cc#\	-mi-	.	.	.
.	.	.	.	.	.	.	.	8cc#\	-ne	.	.	.
=63	=63	=63	=63	=63	=63	=63	=63	=63	=63	=63	=63	=63
!	!	!LO:TX:a:t=t.	!	!LO:TX:a:t=t.	!	!	!	!	!	!	!	!
4e\	.	4a/	.	4cc#\	.	2.ryy	2.ryy	8.cc#\	Do-	2.ryy	2.ryy	2.ryy
.	.	.	.	.	.	.	.	16cc#\	-mi-	.	.	.
4E\	.	4g#/	.	4b\	.	.	.	4cc#\	-ni	.	.	.
4E\	.	4r	.	4r	.	.	.	4r	.	.	.	.
!	!	!LO:LB:g=original	!	!	!	!	!	!	!	!	!	!
=64	=64	=64	=64	=64	=64	=64	=64	=64	=64	=64	=64	=64
4E\	.	2b\	.	2dd\	.	2.ryy	2.ryy	2.dd\	Qui	2.ryy	2.ryy	2.ryy
4E\	.	.	.	.	.	.	.	.	.	.	.	.
4E\	.	8.b\L	.	8.gg#\L	.	.	.	.	.	.	.	.
.	.	(32cc#\LL	.	(32aa\LL	.	.	.	.	.	.	.	.
!	!	!	!	!LO:TX:a:t=P:problem:po tym takcie skreślony takt	!	!	!	!	!	!	!	!
.	.	32dd\JJJ)	.	32bb\JJJ)	.	.	.	.	.	.	.	.
=65	=65	=65	=65	=65	=65	=65	=65	=65	=65	=65	=65	=65
4E\	.	2b\	.	2dd\	.	2.ryy	2.ryy	2.dd\	ve-	2.ryy	2.ryy	2.ryy
4E\	.	.	.	.	.	.	.	.	.	.	.	.
!	!	!	!	!LO:N:vis=8	!	!	!	!	!	!	!	!
4E\	.	8.b\L	.	8.gg#\L	.	.	.	.	.	.	.	.
.	.	(32cc#\LL	.	(32aa\LL	.	.	.	.	.	.	.	.
.	.	32dd\JJJ)	.	32bb\JJJ)	.	.	.	.	.	.	.	.
!	!	!	!	!	!	!	!	!LO:LB:g=original	!	!	!	!
=66	=66	=66	=66	=66	=66	=66	=66	=66	=66	=66	=66	=66
8AA/L	.	8e/L	.	(16cc#\LL	.	2.ryy	2.ryy	(8cc#\L	.	2.ryy	2.ryy	2.ryy
.	.	.	.	16a\)	.	.	.	.	.	.	.	.
8D/J	.	8f#/J	.	(16b\	.	.	.	8b\J)	.	.	.	.
.	.	.	.	16f#\JJ)	.	.	.	.	.	.	.	.
.	.	8qqc#/	.	8qqa/	.	.	.	8qqa/	.	.	.	.
4E\	.	2G#/	.	2g#/	.	.	.	2g#\	-nit	.	.	.
4EE/	.	.	.	.	.	.	.	.	.	.	.	.
=67	=67	=67	=67	=67	=67	=67	=67	=67	=67	=67	=67	=67
4E\	.	2b\	.	2dd\	.	2.ryy	2.ryy	2.dd\	in	2.ryy	2.ryy	2.ryy
4E\	.	.	.	.	.	.	.	.	.	.	.	.
4E\	.	8.b\L	.	8.gg#\L	.	.	.	.	.	.	.	.
.	.	(32cc#\LL	.	(32aa\LL	.	.	.	.	.	.	.	.
.	.	32dd\JJJ)	.	32bb\JJJ)	.	.	.	.	.	.	.	.
=68	=68	=68	=68	=68	=68	=68	=68	=68	=68	=68	=68	=68
4E\	.	2b\	.	2dd\	.	2.ryy	2.ryy	2.dd\	no-	2.ryy	2.ryy	2.ryy
4E\	.	.	.	.	.	.	.	.	.	.	.	.
4E\	.	8.b\L	.	8.gg#\L	.	.	.	.	.	.	.	.
.	.	(32cc#\LL	.	(32aa\LL	.	.	.	.	.	.	.	.
.	.	32dd\JJJ)	.	32bb\JJJ)	.	.	.	.	.	.	.	.
=69	=69	=69	=69	=69	=69	=69	=69	=69	=69	=69	=69	=69
8AA/L	.	8e/L	.	(16cc#\LL	.	2.ryy	2.ryy	8cc#\	-mi-	2.ryy	2.ryy	2.ryy
.	.	.	.	16a\)	.	.	.	.	.	.	.	.
8D/J	.	8f#/J	.	(16b\	.	.	.	8b\	-ne	.	.	.
.	.	.	.	16f#\JJ)	.	.	.	.	.	.	.	.
.	.	8qqc#/	.	8qqa/	.	.	.	8qqa/	.	.	.	.
4E\	.	2B/	.	2g#/	.	.	.	4.g#\	Do-	.	.	.
4EE/	.	.	.	.	.	.	.	.	.	.	.	.
.	.	.	.	.	.	.	.	8g#\	-mi-	.	.	.
=70	=70	=70	=70	=70	=70	=70	=70	=70	=70	=70	=70	=70
!LO:TX:t=P:problem:mixed beam	!	!	!	!	!	!	!	!	!	!	!	!
8A\L	f	8c#/L	f	8a/L	.	2.ryy	2.ryy	4a\	-ni	2.ryy	2.ryy	2.ryy
(16AA/L	.	(16A/L	.	16A/L	.	.	.	.	.	.	.	.
16C#/JJ)	.	16c#/JJ)	.	16c#/JJ	.	.	.	.	.	.	.	.
!LO:TX:b:t=|:problem	!	!LO:TX:b:t=|:problem	!	!	!	!	!	!	!	!	!	!
16E/LL	.	16e/LL	.	16e/LL	.	.	.	4r	.	.	.	.
(16C#/	.	(16c#/	.	16c#/	.	.	.	.	.	.	.	.
16BB/	.	16B/	.	16B/	.	.	.	.	.	.	.	.
16AA/JJ)	.	16A/JJ)	.	16A/JJ	.	.	.	.	.	.	.	.
!LO:TX:t=P:problem:mixed beam	!	!LO:TX:b:t=|:problem	!	!	!	!	!	!	!	!	!	!
!LO:TX:a:t=|:problem	!	!	!	!	!	!	!	!	!	!	!	!
16A\LL	.	16a/LL	.	16a/LL	.	.	.	4r	.	.	.	.
(16C#/	.	(16c#/	.	16c#/	.	.	.	.	.	.	.	.
16BB/	.	16B/	.	16B/	.	.	.	.	.	.	.	.
16AA/JJ)	.	16A/JJ)	.	16A/JJ	.	.	.	.	.	.	.	.
=71	=71	=71	=71	=71	=71	=71	=71	=71	=71	=71	=71	=71
!	!	!	!	!LO:TX:b:t=Dacapo	!	!	!	!	!	!	!	!
2E;;\	p	2e;/	.	2e;/	.	2.ryy	2.ryy	4a;\	Do-	2.ryy	2.ryy	2.ryy
!	!	!	!	!	!	!	!	!LO:TX:a:t=t.	!	!	!	!
.	.	.	.	.	.	.	.	4.b\	.	.	.	.
!LO:TX:b:t=Dacapo	!	!LO:TX:b:t=Dacapo\nOsanna ut sup	!	!	!	!	!	!	!	!	!	!
4ryy	.	4ryy	.	4ryy	.	.	.	.	.	.	.	.
.	.	.	.	.	.	.	.	8b\	-mi-	.	.	.
=72	=72	=72	=72	=72	=72	=72	=72	=72	=72	=72	=72	=72
2.ryy	.	2.ryy	.	2.ryy	.	2.ryy	2.ryy	4a\	-ni	2.ryy	2.ryy	2.ryy
.	.	.	.	.	.	.	.	4r	.	.	.	.
.	.	.	.	.	.	.	.	4r	.	.	.	.
=73	=73	=73	=73	=73	=73	=73	=73	=73	=73	=73	=73	=73
!	!	!	!	!	!	!	!	!LO:N:vis=00	!	!	!	!
2.ryy	.	2.ryy	.	2.ryy	.	2.ryy	2.ryy	0.r	.	2.ryy	2.ryy	2.ryy
=74	=74	=74	=74	=74	=74	=74	=74	=74	=74	=74	=74	=74
2.ryy	.	2.ryy	.	2.ryy	.	2.ryy	2.ryy	.	.	2.ryy	2.ryy	2.ryy
=75	=75	=75	=75	=75	=75	=75	=75	=75	=75	=75	=75	=75
2.ryy	.	2.ryy	.	2.ryy	.	2.ryy	2.ryy	.	.	2.ryy	2.ryy	2.ryy
=76	=76	=76	=76	=76	=76	=76	=76	=76	=76	=76	=76	=76
2.ryy	.	2.ryy	.	2.ryy	.	2.ryy	2.ryy	.	.	2.ryy	2.ryy	2.ryy
=77	=77	=77	=77	=77	=77	=77	=77	=77	=77	=77	=77	=77
!	!	!	!	!	!	!	!	!LO:N:vis=00	!	!	!	!
2.ryy	.	2.ryy	.	2.ryy	.	2.ryy	2.ryy	0.r	.	2.ryy	2.ryy	2.ryy
=78	=78	=78	=78	=78	=78	=78	=78	=78	=78	=78	=78	=78
2.ryy	.	2.ryy	.	2.ryy	.	2.ryy	2.ryy	.	.	2.ryy	2.ryy	2.ryy
=79	=79	=79	=79	=79	=79	=79	=79	=79	=79	=79	=79	=79
2.ryy	.	2.ryy	.	2.ryy	.	2.ryy	2.ryy	.	.	2.ryy	2.ryy	2.ryy
=80	=80	=80	=80	=80	=80	=80	=80	=80	=80	=80	=80	=80
2.ryy	.	2.ryy	.	2.ryy	.	2.ryy	2.ryy	.	.	2.ryy	2.ryy	2.ryy
=81	=81	=81	=81	=81	=81	=81	=81	=81	=81	=81	=81	=81
!	!	!	!	!	!	!	!	!LO:N:vis=00	!	!	!	!
2.ryy	.	2.ryy	.	2.ryy	.	2.ryy	2.ryy	0.r	.	2.ryy	2.ryy	2.ryy
=82	=82	=82	=82	=82	=82	=82	=82	=82	=82	=82	=82	=82
2.ryy	.	2.ryy	.	2.ryy	.	2.ryy	2.ryy	.	.	2.ryy	2.ryy	2.ryy
=83	=83	=83	=83	=83	=83	=83	=83	=83	=83	=83	=83	=83
2.ryy	.	2.ryy	.	2.ryy	.	2.ryy	2.ryy	.	.	2.ryy	2.ryy	2.ryy
=84	=84	=84	=84	=84	=84	=84	=84	=84	=84	=84	=84	=84
2.ryy	.	2.ryy	.	2.ryy	.	2.ryy	2.ryy	.	.	2.ryy	2.ryy	2.ryy
=85	=85	=85	=85	=85	=85	=85	=85	=85	=85	=85	=85	=85
!	!	!	!	!	!	!	!	!LO:TX:b:t=Osanna ut Sup	!	!	!	!
!	!	!	!	!	!	!	!	!LO:N:vis=0	!	!	!	!
2.ryy	.	2.ryy	.	2.ryy	.	2.ryy	2.ryy	1.r	.	2.ryy	2.ryy	2.ryy
=86	=86	=86	=86	=86	=86	=86	=86	=86	=86	=86	=86	=86
!	!	!	!	!LO:TX:a:t=P:problem: brak kreski taktowej	!	!	!	!	!	!	!	!
2.ryy	.	2.ryy	.	2.ryy	.	2.ryy	2.ryy	.	.	2.ryy	2.ryy	2.ryy
==	==	==	==	==	==	==	==	==	==	==	==	==
*-	*-	*-	*-	*-	*-	*-	*-	*-	*-	*-	*-	*-
!!!system-decoration: s1[g1][g2][g3]s9
!!!RDF**kern: > = above
!!!RDF**kern: < = below
!!!RDF**dynam: p = "pia"
!!!RDF**dynam: f = "for"
!!!ENC: Marta Lawrence
!!!END: 2020-10-07
!!!ENC: Marta Chmielewska
!!!END: 2020-05-26
